lib/preview_tmp/nrk-logo-preview-nrk-tegnspraak.svg

<svg width="142" height="24" viewBox="0 0 142 24" fill="none" xmlns="http://www.w3.org/2000/svg">
<path d="M0 18.9967V4.99794H4.59339V18.9967H0ZM10.8428 7.22591L13.4844 18.9967H8.45737L5.30307 4.99794H8.12254C8.76907 4.98954 9.39641 5.21745 9.88691 5.63878C10.3782 6.04244 10.7158 6.60281 10.8428 7.22591ZM14.1744 18.9967V4.99794H18.7678V18.9967H14.1744ZM22.2372 10.3214C21.7422 10.3263 21.2552 10.1968 20.828 9.94679C20.4064 9.70314 20.0563 9.35295 19.8127 8.93136C19.5624 8.50405 19.4329 8.01688 19.4378 7.5217C19.4321 7.02953 19.5618 6.54527 19.8127 6.12183C20.0589 5.70482 20.4086 5.35844 20.828 5.11627C21.2553 4.86658 21.7423 4.7371 22.2372 4.74161C22.7292 4.73631 23.2133 4.86591 23.6369 5.11627C24.0521 5.36056 24.3981 5.70665 24.6424 6.12183C24.893 6.54539 25.0226 7.02957 25.0172 7.5217C25.0218 8.01685 24.8923 8.50393 24.6424 8.93136C24.4007 9.3511 24.0542 9.70099 23.6369 9.94679C23.2133 10.1976 22.7289 10.3273 22.2366 10.3214H22.2372ZM25.7269 18.9967V4.99794H30.3207V18.9967H25.7269ZM36.136 12.6479C36.1489 12.6615 36.2475 12.8225 36.4317 13.131C36.6159 13.4394 36.8558 13.8338 37.1513 14.314C37.447 14.794 37.759 15.3033 38.0874 15.842C38.4157 16.3807 38.7247 16.8901 39.0143 17.3701C39.3028 17.8501 39.6313 18.3922 40 18.9967H34.9531C34.6375 18.484 34.3515 18.0207 34.0952 17.6067C33.8389 17.1926 33.5665 16.7457 33.2778 16.2659C32.9885 15.7866 32.7024 15.32 32.4196 14.866C32.1368 14.4121 31.8938 14.0145 31.6905 13.6732C31.4863 13.3317 31.3449 13.1016 31.2663 12.9831C31.0713 12.689 30.9559 12.3493 30.9315 11.9973C30.951 11.6594 31.0597 11.3328 31.2466 11.0506C31.3254 10.9192 31.47 10.6858 31.6803 10.3506C31.8906 10.0155 32.137 9.61789 32.4196 9.15784C32.7021 8.69779 32.9882 8.22787 33.2778 7.7481C33.5674 7.26833 33.8398 6.8181 34.0952 6.39749C34.3519 5.97731 34.6379 5.51068 34.9531 4.99761H40L36.0962 11.3661C35.9754 11.5552 35.9073 11.7731 35.8991 11.9973C35.9121 12.2327 35.9942 12.459 36.1353 12.6479H36.136Z" fill="white"/>
<path d="M45.3334 6.71533H49.8579V19.0048H51.9325V6.71533H56.4377V4.97661H45.3334V6.71533Z" fill="white"/>
<path d="M65.9611 10.2026C65.5819 9.71103 65.0815 9.32638 64.5089 9.08631C63.8727 8.82665 63.1904 8.69893 62.5034 8.7109C61.8113 8.69914 61.1245 8.83381 60.4881 9.10607C59.9092 9.35953 59.3932 9.73727 58.9766 10.2125C58.5475 10.7118 58.2247 11.2933 58.0279 11.9216C57.8027 12.6407 57.6928 13.3909 57.7022 14.1444C57.6742 15.0964 57.874 16.0413 58.2848 16.9006C58.6603 17.6452 59.2668 18.2483 60.0136 18.6196C60.8899 19.0323 61.8514 19.2321 62.8196 19.2024C63.2853 19.2064 63.7507 19.1767 64.2122 19.1135C64.5979 19.058 64.9781 18.9687 65.3482 18.8468C65.7154 18.7236 66.0723 18.5717 66.4155 18.3924L66.5538 16.871C66.3033 16.9632 66.0497 17.0554 65.7928 17.1476C65.536 17.2398 65.2692 17.3221 64.9926 17.3946C64.7136 17.4677 64.4297 17.5205 64.143 17.5526C63.8545 17.5855 63.5644 17.602 63.274 17.602C62.7552 17.6104 62.2374 17.554 61.7325 17.4341C61.3253 17.3368 60.9486 17.1399 60.6363 16.8611C60.3204 16.5605 60.0888 16.1824 59.9645 15.7645C59.8353 15.3413 59.763 14.9028 59.7492 14.4605H66.8894C66.9866 13.6434 66.9499 12.8158 66.7807 12.0105C66.6418 11.3556 66.3622 10.7387 65.9611 10.2026ZM60.9821 10.6768C61.4456 10.3954 61.9809 10.2547 62.5229 10.2718C63.0655 10.2447 63.6015 10.4013 64.0442 10.7164C64.4378 11.0303 64.7187 11.4637 64.8444 11.9512C64.943 12.3117 64.9915 12.684 64.9887 13.0577H59.7923C59.8292 12.6637 59.9134 12.2756 60.0432 11.9018C60.2119 11.4008 60.5422 10.97 60.9821 10.6768Z" fill="white"/>
<path d="M75.6916 8.96775C75.3898 8.88513 75.0829 8.82244 74.7728 8.78006C74.4191 8.7325 74.0625 8.70939 73.7056 8.7109C73.061 8.70826 72.4226 8.83595 71.8286 9.08631C71.2334 9.33827 70.693 9.70404 70.238 10.1631C69.7531 10.6581 69.3792 11.2509 69.1415 11.9018C68.8658 12.6647 68.7319 13.4716 68.7463 14.2827C68.7247 15.1749 68.8964 16.0613 69.2498 16.8809C69.5596 17.5818 70.0725 18.1736 70.7221 18.58C71.4329 18.9994 72.2481 19.2084 73.073 19.1827C73.7977 19.1801 74.5152 19.0393 75.1871 18.7678C75.5887 18.6042 75.9673 18.3891 76.3133 18.1279V18.669C76.3214 19.1141 76.2581 19.5577 76.1259 19.9829C76.0119 20.3395 75.8156 20.6644 75.553 20.9313C75.2698 21.2031 74.9234 21.4 74.545 21.5042C74.0529 21.6394 73.5437 21.7027 73.0335 21.6919C72.6276 21.6913 72.222 21.6683 71.8187 21.6228C71.3951 21.5749 70.9756 21.4957 70.5637 21.3857C70.1396 21.2727 69.7237 21.1308 69.319 20.9609L69.5363 22.6996C69.8997 22.847 70.2728 22.9692 70.653 23.0651C71.0528 23.1661 71.4585 23.242 71.8678 23.2923C72.3004 23.3456 72.7359 23.372 73.1718 23.3714C74.1442 23.4019 75.1107 23.2092 75.9972 22.8083C76.717 22.4731 77.3193 21.9293 77.726 21.2474C78.124 20.5466 78.3255 19.7514 78.3092 18.9456V8.7109L76.3765 9.20815C76.1535 9.11371 75.9247 9.0334 75.6916 8.96775ZM76.0568 16.8809C75.8121 17.0231 75.5579 17.1486 75.2961 17.2563C75.0655 17.351 74.8277 17.427 74.5848 17.4835C74.3483 17.537 74.1065 17.5635 73.864 17.5625C73.2705 17.584 72.6815 17.4512 72.1546 17.1772C71.6955 16.9152 71.34 16.5037 71.1473 16.0115C70.9091 15.3706 70.7983 14.6894 70.8212 14.0061C70.8123 13.4608 70.8889 12.9174 71.0481 12.3958C71.1776 11.9671 71.4004 11.5723 71.7005 11.2399C71.9927 10.9309 72.3504 10.6912 72.7473 10.5385C73.1984 10.3676 73.6777 10.2838 74.16 10.2915C74.4714 10.2913 74.7822 10.3177 75.089 10.3706C75.4032 10.426 75.7133 10.5019 76.0176 10.5978C76.1144 10.6281 76.2152 10.6683 76.314 10.7051V16.7287C76.2271 16.7808 76.1385 16.8341 76.0568 16.8809Z" fill="white"/>
<path d="M89.1169 9.12583C88.5299 8.82934 87.8773 8.68657 87.2201 8.7109C86.6466 8.71202 86.0767 8.802 85.5308 8.97764C84.9682 9.15686 84.433 9.41284 83.9403 9.73832C83.7496 9.86378 83.5662 10.0018 83.387 10.1434V8.73066L81.3717 9.02704V19.0049H83.387V11.5007C83.5821 11.3865 83.7833 11.2829 83.9896 11.1905C84.2672 11.0677 84.5508 10.9589 84.8393 10.8645C85.1168 10.7738 85.4008 10.7045 85.6889 10.6571C85.9599 10.612 86.2341 10.5888 86.5088 10.5879C86.8312 10.5804 87.1524 10.6306 87.4572 10.7361C87.7087 10.8267 87.933 10.9797 88.1092 11.1807C88.2906 11.3986 88.4191 11.6556 88.4846 11.9315C88.5688 12.2807 88.6086 12.6392 88.6032 12.9984V19.0049H90.6185V12.5835C90.6448 11.8344 90.517 11.088 90.2431 10.3903C90.0199 9.85457 89.6233 9.40928 89.1169 9.12583Z" fill="white"/>
<path d="M99.8452 14.4605C99.6428 14.2461 99.4098 14.063 99.1537 13.9171C98.8884 13.7653 98.6107 13.6364 98.3235 13.5319C98.1127 13.466 97.9053 13.3969 97.7011 13.3244C97.4969 13.252 97.2928 13.1861 97.0886 13.1268C96.8844 13.0675 96.6868 13.005 96.4959 12.9391C96.3168 12.8782 96.1419 12.8055 95.9723 12.7218C95.8098 12.6355 95.6546 12.5364 95.5079 12.4254C95.3726 12.3234 95.2586 12.1959 95.1724 12.05C95.0852 11.9002 95.0407 11.7294 95.0436 11.5561C95.0383 11.3656 95.0864 11.1774 95.1823 11.0127C95.2854 10.851 95.4282 10.7183 95.5972 10.6274C95.8039 10.5138 96.0273 10.4338 96.2591 10.3903C96.5488 10.3347 96.8434 10.3083 97.1383 10.3113C97.2829 10.3113 97.4409 10.3182 97.6125 10.331C97.7841 10.3439 97.9711 10.3676 98.1756 10.4002C98.3801 10.4328 98.5836 10.4763 98.7878 10.5286C98.9919 10.581 99.1994 10.6406 99.4105 10.7065C99.6059 10.7665 99.7971 10.8391 99.9831 10.9238L100.122 9.32339C99.8713 9.21801 99.6243 9.12582 99.3809 9.04679C99.1375 8.96793 98.8902 8.90197 98.6399 8.84919C98.3955 8.79741 98.148 8.76113 97.899 8.74054C97.6551 8.72078 97.4147 8.71089 97.1778 8.71089C96.6321 8.70531 96.0877 8.76838 95.5577 8.8986C95.1043 9.0087 94.6733 9.19583 94.2833 9.45182C93.9296 9.68567 93.6407 10.0051 93.4435 10.3805C93.237 10.794 93.1353 11.252 93.1472 11.7141C93.1412 12.047 93.1948 12.3782 93.3056 12.6922C93.3992 12.9556 93.5398 13.1999 93.7205 13.4133C93.8962 13.6149 94.099 13.7911 94.3231 13.9369C94.5565 14.09 94.8047 14.2191 95.064 14.3222C95.2087 14.3749 95.3602 14.4276 95.5185 14.4803C95.6768 14.5329 95.8315 14.5823 95.9828 14.6284C96.134 14.6749 96.2821 14.7206 96.427 14.7667C96.5719 14.8128 96.7135 14.8589 96.8518 14.905C96.9901 14.9511 97.1251 14.994 97.2572 15.0335C97.4338 15.0961 97.6054 15.1721 97.7706 15.2607C97.9156 15.3375 98.0516 15.4302 98.176 15.5373C98.2853 15.6328 98.3727 15.7507 98.4325 15.8831C98.4931 16.0199 98.5235 16.1681 98.5217 16.3177C98.5287 16.4639 98.5031 16.6098 98.4467 16.7448C98.3902 16.8798 98.3044 17.0005 98.1954 17.0982C97.9508 17.3026 97.6586 17.4419 97.3458 17.5032C96.9794 17.5841 96.605 17.6239 96.2298 17.6218C95.9952 17.6202 95.7609 17.6037 95.5284 17.5724C95.2715 17.5399 95.0015 17.4938 94.7183 17.4341C94.4351 17.3744 94.1452 17.3019 93.8486 17.2167C93.5525 17.1313 93.2529 17.0359 92.95 16.9303L93.029 18.6097C93.371 18.7282 93.6838 18.8237 93.9675 18.8962C94.2511 18.9686 94.5211 19.0312 94.7776 19.0839C95.0251 19.1352 95.276 19.1682 95.5284 19.1827C95.7718 19.1958 96.0188 19.2024 96.2693 19.2024C96.8203 19.2052 97.3699 19.1489 97.9089 19.0345C98.3834 18.938 98.8378 18.7609 99.2524 18.5109C99.6262 18.2827 99.9357 17.9632 100.152 17.5823C100.378 17.1642 100.49 16.6941 100.477 16.219C100.486 15.8722 100.429 15.5271 100.31 15.2014C100.203 14.9271 100.046 14.6756 99.8452 14.4605Z" fill="white"/>
<path d="M110.465 9.33327C109.756 8.89909 108.935 8.68267 108.104 8.71089C107.611 8.7133 107.12 8.77634 106.642 8.89859C106.125 9.02984 105.628 9.22568 105.16 9.48146C105.067 9.53184 104.975 9.58782 104.884 9.64446V8.73065L102.868 9.04678V23.154H104.884V18.7305C104.897 18.7361 104.91 18.7424 104.923 18.748C105.288 18.8997 105.669 19.0091 106.059 19.074C106.519 19.1499 106.985 19.1863 107.452 19.1827C108.342 19.1979 109.219 18.9727 109.991 18.5306C110.749 18.0812 111.365 17.4272 111.769 16.6438C112.236 15.7097 112.463 14.6743 112.431 13.6306C112.449 12.7483 112.278 11.8722 111.928 11.0621C111.618 10.3561 111.11 9.75539 110.465 9.33327ZM109.942 15.9423C109.704 16.4671 109.306 16.9029 108.805 17.1871C108.249 17.4787 107.626 17.6217 106.998 17.602C106.697 17.6022 106.396 17.579 106.099 17.5329C105.787 17.4831 105.479 17.4071 105.18 17.3056C105.085 17.2727 104.982 17.2352 104.884 17.199V10.9636C104.91 10.9515 104.937 10.9356 104.963 10.9238C105.252 10.7921 105.522 10.6801 105.773 10.5879C106.01 10.4994 106.254 10.4333 106.504 10.3903C106.726 10.3521 106.95 10.3323 107.175 10.331C107.785 10.3109 108.389 10.4433 108.934 10.7163C109.41 10.9757 109.783 11.3907 109.991 11.8919C110.242 12.5331 110.36 13.2189 110.337 13.9072C110.358 14.6066 110.223 15.3018 109.942 15.9423Z" fill="white"/>
<path d="M119.01 8.85842C118.64 8.95745 118.288 9.11059 117.963 9.31286C117.626 9.5232 117.314 9.77183 117.034 10.0538C116.988 10.1002 116.942 10.1526 116.896 10.2016V8.72999L114.88 9.02637V19.0042H116.896V11.5396C117.046 11.435 117.201 11.3381 117.36 11.2491C117.558 11.1403 117.763 11.0446 117.973 10.9627C118.177 10.8836 118.384 10.8145 118.595 10.7552C118.812 10.6949 119.033 10.6519 119.257 10.6268C119.496 10.6002 119.738 10.5935 119.978 10.607L120.215 8.74975C119.81 8.72065 119.403 8.75735 119.01 8.85842Z" fill="white"/>
<path d="M130.608 17.7601C130.464 17.7733 130.318 17.7515 130.184 17.6964C130.05 17.6414 129.931 17.5548 129.838 17.444C129.654 17.1274 129.578 16.7601 129.62 16.3968L129.66 12.3266C129.664 11.8999 129.611 11.4746 129.502 11.0621C129.406 10.7004 129.245 10.359 129.028 10.0544C128.808 9.75661 128.529 9.50765 128.208 9.32339C127.835 9.11174 127.432 8.95848 127.012 8.86895C126.499 8.75818 125.976 8.70517 125.451 8.71089C125.035 8.71071 124.619 8.7371 124.207 8.78992C123.817 8.83901 123.43 8.91493 123.051 9.01714C122.699 9.11264 122.352 9.22808 122.013 9.3629L121.776 11.0423C122.106 10.9238 122.418 10.825 122.715 10.746C123.011 10.6669 123.298 10.6011 123.574 10.5484C123.845 10.4966 124.119 10.4603 124.394 10.4397C124.664 10.42 124.931 10.4101 125.194 10.4101C125.597 10.4016 126 10.4481 126.39 10.5484C126.675 10.6197 126.936 10.7625 127.15 10.9633C127.341 11.1587 127.477 11.4005 127.546 11.6647C127.63 11.9905 127.67 12.3261 127.664 12.6625L127.662 13.1584L125.353 13.3145C124.563 13.3365 123.784 13.5109 123.061 13.8282C122.519 14.0652 122.051 14.4441 121.707 14.9248C121.415 15.3526 121.26 15.8591 121.263 16.377C121.259 16.863 121.378 17.3421 121.608 17.77C121.85 18.2095 122.214 18.5697 122.656 18.8073C123.195 19.0876 123.797 19.2238 124.404 19.2024C124.973 19.2155 125.539 19.1217 126.074 18.9258C126.536 18.7449 126.958 18.4766 127.318 18.1355C127.455 18.0044 127.585 17.8662 127.707 17.7215C127.745 17.9261 127.818 18.1228 127.921 18.3034C128.097 18.6059 128.368 18.842 128.692 18.9752C129.049 19.1189 129.432 19.1894 129.818 19.1827C129.936 19.1827 130.052 19.1794 130.164 19.1728C130.274 19.1662 130.383 19.1496 130.49 19.1234C130.595 19.0967 130.69 19.074 130.776 19.0542C130.853 19.0369 130.929 19.0138 131.003 18.9851L131.221 17.6613C131.112 17.6987 130.999 17.7252 130.885 17.7403C130.793 17.7526 130.701 17.7591 130.608 17.7601ZM127.318 16.871C127.104 17.0404 126.872 17.1861 126.627 17.3056C126.382 17.4244 126.123 17.5107 125.857 17.5625C125.58 17.6158 125.299 17.6423 125.017 17.6415C124.695 17.6507 124.374 17.5901 124.078 17.4637C123.837 17.359 123.634 17.1833 123.495 16.9599C123.358 16.7231 123.29 16.4529 123.298 16.1794C123.279 15.85 123.369 15.5236 123.555 15.2508C123.77 14.9997 124.061 14.8262 124.384 14.7569C124.889 14.6379 125.407 14.5848 125.925 14.5988H127.656L127.647 16.5598C127.546 16.6728 127.437 16.7769 127.318 16.871Z" fill="white"/>
<path d="M124.295 7.13025C124.669 7.30683 125.078 7.39473 125.491 7.3871C125.914 7.39541 126.334 7.30404 126.716 7.12036C127.06 6.95293 127.351 6.69296 127.556 6.36957C127.767 6.02172 127.873 5.62042 127.862 5.21372C127.874 4.9187 127.823 4.62447 127.71 4.35149C127.597 4.07852 127.427 3.83336 127.21 3.63308C126.747 3.22749 126.145 3.01528 125.53 3.04032C125.119 3.03566 124.711 3.11991 124.335 3.28729C123.982 3.44442 123.683 3.70213 123.475 4.02822C123.256 4.39085 123.146 4.80958 123.159 5.23347C123.146 5.6436 123.252 6.0488 123.466 6.39919C123.669 6.71492 123.957 6.96799 124.295 7.13025ZM124.612 4.28509C124.736 4.17452 124.882 4.08968 125.039 4.03544C125.197 3.98119 125.364 3.95859 125.53 3.96895C125.775 3.95791 126.018 4.01612 126.232 4.1369C126.404 4.24298 126.542 4.39763 126.627 4.58146C126.715 4.78027 126.759 4.9961 126.755 5.21372C126.759 5.43238 126.712 5.64892 126.617 5.84597C126.528 6.02759 126.387 6.17881 126.212 6.28065C125.997 6.39518 125.754 6.44976 125.511 6.43871C125.279 6.44557 125.049 6.39821 124.839 6.30041C124.658 6.21244 124.512 6.06633 124.424 5.88548C124.326 5.67536 124.279 5.44535 124.286 5.21372C124.273 5.04486 124.296 4.8753 124.352 4.71556C124.408 4.55583 124.497 4.40931 124.612 4.28509Z" fill="white"/>
<path d="M139.183 19.0048H141.791L136.998 13.6043L141.692 8.92822H139.222L135.841 12.6428H135.113V4.08751L133.097 4.38387V19.0048H135.113V14.1641H135.146L139.183 19.0048Z" fill="white"/>
</svg>

<svg xmlns="http://www.w3.org/2000/svg" viewBox="0 0 142 24"><path fill="#fff" d="M0 18.997v-14h4.593v14H0ZM10.843 7.226l2.641 11.77H8.457L5.303 4.999h2.82a2.655 2.655 0 0 1 1.764.64c.491.404.829.965.956 1.588Zm3.331 11.77V4.999h4.594v13.999h-4.594Zm8.063-8.675a2.736 2.736 0 0 1-1.409-.374 2.778 2.778 0 0 1-1.015-1.016 2.735 2.735 0 0 1-.375-1.41 2.685 2.685 0 0 1 .375-1.4 2.812 2.812 0 0 1 3.824-1.005c.415.245.761.59 1.005 1.006.251.423.38.908.375 1.4.005.495-.125.982-.375 1.41a2.8 2.8 0 0 1-1.005 1.015c-.424.25-.908.38-1.4.374Zm3.49 8.676v-14h4.594v14h-4.594Zm10.409-6.35c.013.014.111.175.296.484.184.308.424.703.72 1.183a384.573 384.573 0 0 1 1.862 3.056c.289.48.617 1.022.986 1.627h-5.047l-.858-1.39c-.256-.414-.529-.861-.817-1.341-.29-.48-.576-.946-.858-1.4a71.148 71.148 0 0 1-.73-1.193 21.119 21.119 0 0 0-.424-.69 2.04 2.04 0 0 1-.334-.986c.019-.338.128-.664.315-.946.078-.132.223-.365.433-.7a216.7 216.7 0 0 0 1.598-2.603l.817-1.35.858-1.4H40l-3.904 6.368c-.12.19-.189.407-.197.631.013.236.095.462.236.65h.001ZM45.333 6.715h4.525v12.29h2.075V6.715h4.505V4.977H45.333v1.738ZM65.961 10.203a3.584 3.584 0 0 0-1.452-1.117 5.073 5.073 0 0 0-2.006-.375 4.912 4.912 0 0 0-2.015.395 4.308 4.308 0 0 0-1.511 1.107c-.43.499-.752 1.08-.95 1.709a7.14 7.14 0 0 0-.325 2.222 5.983 5.983 0 0 0 .583 2.757 3.862 3.862 0 0 0 1.729 1.719 6.144 6.144 0 0 0 2.806.582c.465.004.93-.025 1.392-.089a6.667 6.667 0 0 0 1.136-.266 7.362 7.362 0 0 0 1.067-.455l.139-1.521-.761.277a9.482 9.482 0 0 1-.8.247 5.975 5.975 0 0 1-.85.158 7.67 7.67 0 0 1-.869.049 6.235 6.235 0 0 1-1.541-.168 2.528 2.528 0 0 1-1.097-.573 2.496 2.496 0 0 1-.672-1.097 5 5 0 0 1-.215-1.303h7.14a7.568 7.568 0 0 0-.108-2.45 4.617 4.617 0 0 0-.82-1.808Zm-4.979.474a2.799 2.799 0 0 1 1.54-.405 2.416 2.416 0 0 1 1.522.444c.394.314.675.748.8 1.235.099.36.148.733.145 1.107h-5.197c.037-.394.121-.782.251-1.156.169-.501.5-.932.94-1.225ZM75.692 8.968a7.142 7.142 0 0 0-.92-.188 7.762 7.762 0 0 0-1.066-.07 4.782 4.782 0 0 0-1.877.376 4.964 4.964 0 0 0-1.591 1.077 4.874 4.874 0 0 0-1.097 1.739 6.658 6.658 0 0 0-.395 2.38c-.021.893.15 1.78.504 2.599.31.7.823 1.293 1.472 1.699.71.42 1.526.628 2.351.603a5.697 5.697 0 0 0 2.114-.415 5 5 0 0 0 1.126-.64v.541a4.17 4.17 0 0 1-.187 1.314 2.39 2.39 0 0 1-.573.948 2.36 2.36 0 0 1-1.008.573 5.284 5.284 0 0 1-1.511.188c-.406 0-.812-.024-1.215-.07a8.616 8.616 0 0 1-1.255-.236 9.602 9.602 0 0 1-1.245-.425l.217 1.739c.364.147.737.27 1.117.365.4.101.805.177 1.215.227.432.054.868.08 1.304.08a6.372 6.372 0 0 0 2.825-.564 3.959 3.959 0 0 0 1.729-1.56c.398-.701.6-1.497.583-2.302V8.71l-1.933.497a5.762 5.762 0 0 0-.684-.24Zm.365 7.913a6.237 6.237 0 0 1-.76.375c-.231.095-.47.171-.712.227-.237.054-.478.08-.721.08a3.436 3.436 0 0 1-1.71-.386 2.313 2.313 0 0 1-1.007-1.165 5.251 5.251 0 0 1-.326-2.006 5.224 5.224 0 0 1 .227-1.61c.13-.429.352-.824.653-1.156.292-.31.65-.549 1.046-.701.451-.171.93-.255 1.413-.248.311 0 .622.027.929.08.314.055.624.13.929.227.096.03.197.07.296.107v6.024c-.087.052-.175.105-.257.152ZM89.117 9.126a3.888 3.888 0 0 0-1.897-.415 5.551 5.551 0 0 0-1.69.267 6.422 6.422 0 0 0-1.59.76c-.19.126-.374.264-.553.405V8.731l-2.015.296v9.978h2.015V11.5c.195-.114.396-.218.603-.31.277-.123.56-.232.85-.327.277-.09.56-.16.849-.207.27-.045.545-.068.82-.07.322-.007.643.044.948.15.252.09.476.243.652.444.182.218.31.475.376.75.084.35.124.708.118 1.067v6.007h2.016v-6.421a5.476 5.476 0 0 0-.376-2.194 2.591 2.591 0 0 0-1.126-1.264ZM99.845 14.46a2.978 2.978 0 0 0-.691-.543 5.366 5.366 0 0 0-.83-.385c-.211-.066-.419-.135-.623-.208a11.076 11.076 0 0 0-.612-.197 12.5 12.5 0 0 1-.593-.188 4.342 4.342 0 0 1-.524-.217 3.456 3.456 0 0 1-.464-.297 1.295 1.295 0 0 1-.336-.375.95.95 0 0 1-.128-.494c-.006-.19.042-.379.138-.543.103-.162.246-.295.415-.386.207-.113.43-.193.662-.237.29-.055.584-.082.88-.079a6.425 6.425 0 0 1 1.037.09c.204.032.408.075.612.128.204.052.411.112.623.178.195.06.386.132.572.217l.139-1.6a9.425 9.425 0 0 0-.741-.277 7.272 7.272 0 0 0-.741-.198 5.934 5.934 0 0 0-.741-.108 8.93 8.93 0 0 0-.721-.03 6.512 6.512 0 0 0-1.62.188c-.454.11-.885.297-1.275.553a2.516 2.516 0 0 0-.84.928 2.822 2.822 0 0 0-.296 1.334c-.006.333.048.664.159.978.093.264.234.508.415.721.175.202.378.378.602.524.234.153.482.282.741.385a17.269 17.269 0 0 0 .919.306 48.387 48.387 0 0 1 .869.277c.138.046.273.089.405.129.177.062.348.138.514.227.145.077.28.17.405.276a1.012 1.012 0 0 1 .346.78.986.986 0 0 1-.327.781 1.892 1.892 0 0 1-.85.405c-.366.081-.74.12-1.115.119a5.54 5.54 0 0 1-.702-.05 10.053 10.053 0 0 1-.81-.138c-.283-.06-.573-.132-.87-.217-.296-.086-.595-.181-.898-.287l.079 1.68c.342.118.655.214.939.286.283.073.553.135.81.188.247.051.498.084.75.099.244.013.49.02.741.02.551.002 1.1-.054 1.64-.168a4.237 4.237 0 0 0 1.343-.524c.374-.228.684-.548.9-.929a2.71 2.71 0 0 0 .325-1.363 2.757 2.757 0 0 0-.167-1.018 2.32 2.32 0 0 0-.465-.74ZM110.465 9.333a4.245 4.245 0 0 0-2.361-.622 6.02 6.02 0 0 0-1.462.188 6.342 6.342 0 0 0-1.758.745v-.913l-2.016.316v14.107h2.016V18.73l.039.018c.365.152.746.261 1.136.326.46.076.926.112 1.393.109.89.015 1.767-.21 2.539-.652a4.695 4.695 0 0 0 1.778-1.887c.467-.934.694-1.97.662-3.013a6.16 6.16 0 0 0-.503-2.569 3.976 3.976 0 0 0-1.463-1.729Zm-.523 6.61c-.238.524-.636.96-1.137 1.244a3.646 3.646 0 0 1-1.807.415 5.614 5.614 0 0 1-1.818-.296c-.095-.033-.198-.07-.296-.107v-6.235c.026-.013.053-.028.079-.04.289-.132.559-.244.81-.336a4.048 4.048 0 0 1 1.402-.257c.61-.02 1.214.112 1.759.385.476.26.849.675 1.057 1.176.251.641.369 1.327.346 2.015.021.7-.114 1.395-.395 2.035ZM119.01 8.858c-.37.1-.722.253-1.047.455-.337.21-.649.459-.929.74-.046.047-.092.1-.138.149V8.73l-2.016.296v9.978h2.016V11.54a5.187 5.187 0 0 1 1.077-.577 6.83 6.83 0 0 1 .622-.208 4.23 4.23 0 0 1 1.383-.148l.237-1.857a3.757 3.757 0 0 0-1.205.108ZM130.608 17.76a.9.9 0 0 1-.77-.316 1.696 1.696 0 0 1-.218-1.047l.04-4.07a4.774 4.774 0 0 0-.158-1.265 3.115 3.115 0 0 0-.474-1.008 2.676 2.676 0 0 0-.82-.73 4.194 4.194 0 0 0-1.196-.455 7.029 7.029 0 0 0-1.561-.158c-.416 0-.832.026-1.244.079a8.54 8.54 0 0 0-1.156.227c-.352.096-.699.211-1.038.346l-.237 1.68a11.643 11.643 0 0 1 1.798-.495c.271-.051.545-.088.82-.108.27-.02.537-.03.8-.03a4.43 4.43 0 0 1 1.196.138c.285.072.546.214.76.415.191.196.327.438.396.702.084.326.124.661.118.998l-.002.495-2.309.157a6.13 6.13 0 0 0-2.292.513 3.282 3.282 0 0 0-1.354 1.097 2.55 2.55 0 0 0-.444 1.452c-.004.486.115.965.345 1.393.242.44.606.8 1.048 1.037a3.52 3.52 0 0 0 1.748.395 4.55 4.55 0 0 0 1.67-.276c.462-.181.884-.45 1.244-.79.137-.132.267-.27.389-.415.038.205.111.402.214.582.176.303.447.539.771.672.357.144.74.214 1.126.208a5.9 5.9 0 0 0 .346-.01c.11-.007.219-.023.326-.05l.286-.069c.077-.017.153-.04.227-.069l.218-1.324a1.742 1.742 0 0 1-.336.08 2.269 2.269 0 0 1-.277.02Zm-3.29-.889c-.214.17-.446.315-.691.435a3.142 3.142 0 0 1-.77.256c-.277.054-.558.08-.84.08a2.23 2.23 0 0 1-.939-.178 1.294 1.294 0 0 1-.583-.504 1.472 1.472 0 0 1-.197-.78c-.019-.33.071-.656.257-.93.215-.25.506-.424.829-.493a6.01 6.01 0 0 1 1.541-.158h1.731l-.009 1.96c-.101.114-.21.218-.329.312ZM124.295 7.13c.374.177.783.265 1.196.257.423.008.843-.083 1.225-.267.344-.167.635-.427.84-.75.211-.348.317-.75.306-1.156a2.037 2.037 0 0 0-.652-1.58 2.402 2.402 0 0 0-1.68-.594 2.86 2.86 0 0 0-1.195.247 1.97 1.97 0 0 0-.86.741 2.202 2.202 0 0 0-.316 1.205c-.013.41.093.816.307 1.166.203.316.491.569.829.731Zm.317-2.845a1.261 1.261 0 0 1 .918-.316c.245-.011.488.047.702.168.172.106.31.26.395.444.088.2.132.415.128.633.004.218-.043.435-.138.632-.089.182-.23.333-.405.435-.215.114-.458.169-.701.158a1.487 1.487 0 0 1-.672-.139.898.898 0 0 1-.415-.415 1.483 1.483 0 0 1-.138-.671 1.222 1.222 0 0 1 .326-.929ZM139.183 19.005h2.608l-4.793-5.4 4.694-4.677h-2.47l-3.381 3.715h-.728V4.088l-2.016.296v14.62h2.016v-4.84h.033l4.037 4.84Z"/></svg>
